X:23
T: Bluegrass Twist
C: Bill Monroe, David Grisman solo
S: MandoZine TablEdit Archives
Z: TablEdited by Mike Stangeland for MandoZine
L: 1/8
Q: 378
M: 4/4
K: G
 | "G"[gd][gd] [gd][gd] [gd][gd] [gd][gd] | [^ad][^ad] [^ad][^ad] [^ad][^ad] [^ad][^ad] |
 [^ad][^ad] [^ad][^ad] [^ad][^ad] [^ad][^ad] | "G7"^ag g=f dc ^Ac | "C"^AG c^A z2 c2 | G2 c2 (3^Ac^A GG |
 "G"G,2 ^A,B, G2 (3=FED | G,2 [D2G,2] [D2G,2] E=F | "D7"[dF][dF] [dF][dF] [dF][dF] [d2F2] |
 (3ggg (3=fg=f (3d^c=c (3^Ac^A | "G"G2 G=F (3D^C=C ^A,B, | G,2 [g2B2D2G,2] [g2B2D2G,2] [g2B2D2G,2] |
